X: 218
T: Frank Collins 1st Polka
B: australian dance tunes
M:2/4
L:1/16
R: Polka
Q: 1/4=100
K:G
V:1 
BA|:G2D2 E2D2|G2DG B4|A2cA F2AF|DFAB c2BA|!
G2D2 E2D2|G2DG B4|c2AF DFAc|1 B2G2 G2:|2 B2G2 G2Bc|!
|:d3c B2G2|D2GB d2AB|c3A F2AF|DFAB c2Bc|!
d3c B2G2|D2GB d2AB|c2 AF DFAc|B2G2 G2:|
% abcbook-tune_id 62a0785009ce5e2958e421a7


% abcbook-boost 0
% abcbook-tablature 
% abcbook-transpose 
% abcbook-lastupdated 1654683750376
% abcbook-soundfonts 
% abcbook-repeats 1


